X: 745
T: Galway Tom
R:jig
N:"2nd Setting" "Collected by McFadden"
B:O'Neill's 745
Z:Transcribed by Michael Hogan
M:6/8
L:1/8
K:Bn
def fef | fef fef | def fef | edB BAB |
def fef | fef fef | baf fed | fdB B2d :|
AFA AFA | AFA A2d | BGB BGB | BGB Bcd |
AFA BGB | dBd efa | baf {g}fed |1 fdB B2d :|2 fdB {c}BAB ||
def (ab/a/f) | (ab/a/f) (ab/a/f) | def (ab/a/f) | gfe fdB  |
def  a/a/af  |  a/a/af  a2 f | (g/a/bg) faf | gfe fdB :|
AFD DFA | AFA A2d | BGE EFA | BGB B2d |
AFA BGB | dBd efa | baf fed |1 fdB B2d :|2 fdB {c}BAB||
|:d3 fdd | edd fdd | d/d/dd fdd | edB BAB |
~d3 fdd | edd efa | baf fed | fdB {c}BAB :|


